svgs/sharp-solid/wave-pulse.svg

<svg xmlns="http://www.w3.org/2000/svg" viewBox="0 0 640 512"><!--! Font Awesome Pro 6.6.0 by @fontawesome - https://fontawesome.com License - https://fontawesome.com/license (Commercial License) Copyright 2024 Fonticons, Inc. --><path d="M285.2 0L312 0l16 0 25.5 0 5.7 24.9 63.9 281.3 27.6-63 8.4-19.2 20.9 0 128 0 32 0 0 64-32 0-107.1 0L453.3 396.8 444.9 416 424 416l-16 0-25.5 0-5.7-24.9-54-237.6L263.5 485.6 258.8 512 232 512l-16 0-25 0L185 487.8 135 288 32 288 0 288l0-64 32 0 128 0 25 0 6.1 24.2 29.1 116.3L280.5 26.4 285.2 0z"/></svg>

<svg xmlns="http://www.w3.org/2000/svg" viewBox="0 0 640 512"><!--! Font Awesome Pro 6.4.2 by @fontawesome - https://fontawesome.com License - https://fontawesome.com/license (Commercial License) Copyright 2023 Fonticons, Inc. --><path d="M285.2 0H312h16 25.5l5.7 24.9 63.9 281.3 27.6-63 8.4-19.2H480 608h32v64H608 500.9L453.3 396.8 444.9 416H424 408 382.5l-5.7-24.9-54-237.6L263.5 485.6 258.8 512H232 216 191L185 487.8 135 288H32 0V224H32 160h25l6.1 24.2 29.1 116.3L280.5 26.4 285.2 0z"/></svg>
